#TITLE Start
#COMPOSER Steve Cochrane
#PROGRAMER 2012 Steve Cochrane

; Volume envelopes
@v0 = { 8 8 8 7 7 7 6 6 6 5 5 5 4 4 4 3 3 3 2 2 2 1 1 1 0 }

; Tempo set to 180bpm
AB t180

; Set up channel A (pulse): length = 8th notes, octave = 3, duty cycle = 0, volume = volume envelope 0
A l8 o3 @00 @v0
A e c > e < b > d4

; Set up channel B (pulse): length = 4th notes, octave = 5, duty cycle = 2, volume = 2
B l4 o5 @02 v2
B e c d
